ERK
CUT[ES FUHR EIN SCHIFFLEIN WOL UEBER DEN RHEIN]
REG[Europa, Mitteleuropa, Deutschland, Schlesien]
TRD[]
FKT[]
SIG[E0186C]
KEY[E0186C  16  G 6/8]
MEL[12  3_.23_1_2_3_  4_.34_2__
    23  4_2_5_3_.21_  2_.32_1__ //]
BEM[]
MEL_SEM[2 2 -2 2 -4 2 2 1 -1 1 -3 0 2 1 -3 5 -3 -2 -2 2 2 -2 -2]
MEL_RAW[12  323123  4342
    23  425321  2321]
NO_REP[123231234342
    234253212321]
RTM[xx  x_.xx_x_x_x_  x_.xx_x__
    xx  x_x_x_x_.xx_  x_.xx_x__]
SCL_DEG[12345]
SCL_SEM[2 2 1 2]

